X: 14612
T: Gan Ainm
R: slide
M: 12/8
K: Adorian
ABd c2BA2D GFG|A2d fedc2d A3|B2d efgf2g d2e|fed c2dA3A3:|
ded d2ef2d def|g2a baga2f d2e|aba gagf2e d2e|fed c2dA3A3:|

